src/base/static/base/assets/include/rs-plugin/demos/assets/svg/action/ic_view_list_24px.svg

<svg height="24" viewBox="0 0 24 24" width="24" xmlns="http://www.w3.org/2000/svg"><path d="m4 14h4v-4h-4zm0 5h4v-4h-4zm0-10h4v-4h-4zm5 5h12v-4h-12zm0 5h12v-4h-12zm0-14v4h12v-4z"/></svg>

<svg xmlns="http://www.w3.org/2000/svg" width="24" height="24" viewBox="0 0 24 24"><path d="M4 14h4v-4H4v4zm0 5h4v-4H4v4zM4 9h4V5H4v4zm5 5h12v-4H9v4zm0 5h12v-4H9v4zM9 5v4h12V5H9z"/></svg>
